22x22/apps/com.github.allen-b1.news.svg

<svg xmlns="http://www.w3.org/2000/svg" width="22" height="22" version="1"><rect style="opacity:.2" width="20" height="20" x="1" y="1.5" rx="1" ry="1"/><rect style="fill:#c93e5f" width="20" height="20" x="1" y="1" rx="1" ry="1"/><path style="opacity:.2;fill:#f4f4f7" d="M2 1c-.554 0-1 .446-1 1v.5c0-.554.446-1 1-1h18c.554 0 1 .446 1 1V2c0-.554-.446-1-1-1z"/><path style="fill:#f4f4f7" d="M5 11.002h.67c4.05 0 7.33 3.278 7.33 7.328v.672h-.67a.672.672 0 0 1-.66-.672c0-3.314-2.68-6-6-6a.666.666 0 0 1-.67-.656z" transform="translate(-1 -1)"/><path style="fill:#f4f4f7" d="M5 13.674h.67a4.65 4.65 0 0 1 4.66 4.656v.672h-.66A.68.68 0 0 1 9 18.33a3.327 3.327 0 0 0-3.33-3.328.68.68 0 0 1-.67-.672z" transform="translate(-1 -1)"/><path style="fill:#f4f4f7" d="M6.33 16.33c.74 0 1.34.607 1.34 1.344 0 .736-.61 1.328-1.34 1.328-.74 0-1.33-.592-1.33-1.328 0-.737.6-1.344 1.33-1.344z" transform="translate(-1 -1)"/></svg>

<svg xmlns="http://www.w3.org/2000/svg" width="22" height="22" version="1">
 <rect style="opacity:0.2" width="20" height="20" x="1" y="1.5" rx="1" ry="1"/>
 <rect style="fill:#c93e5f" width="20" height="20" x="1" y="1" rx="1" ry="1"/>
 <path style="opacity:0.2;fill:#f4f4f7" d="M 2,1 C 1.446,1 1,1.446 1,2 V 2.5 C 1,1.946 1.446,1.5 2,1.5 H 20 C 20.554,1.5 21,1.946 21,2.5 V 2 C 21,1.446 20.554,1 20,1 Z"/>
 <g transform="translate(-1,-1)">
  <path style="fill:#f4f4f7" d="M 5,11.002 H 5.67 C 9.72,11.002 13,14.28 13,18.33 V 19.002 H 12.33 C 11.97,19.002 11.67,18.697 11.67,18.33 11.67,15.016 8.99,12.33 5.67,12.33 5.31,12.33 5,12.041 5,11.674 Z"/>
  <path style="fill:#f4f4f7" d="M 5,13.674 H 5.67 C 8.25,13.674 10.33,15.753 10.33,18.33 V 19.002 H 9.67 C 9.31,19.002 9,18.697 9,18.33 9,16.489 7.51,15.002 5.67,15.002 5.31,15.002 5,14.697 5,14.33 Z"/>
  <path style="fill:#f4f4f7" d="M 6.33,16.33 C 7.07,16.33 7.67,16.937 7.67,17.674 7.67,18.41 7.06,19.002 6.33,19.002 5.59,19.002 5,18.41 5,17.674 5,16.937 5.6,16.33 6.33,16.33 Z"/>
 </g>
</svg>
